static/images/about/herdl.svg

<svg width="50" height="50" viewBox="0 0 50 50" fill="none" xmlns="http://www.w3.org/2000/svg">
<g clip-path="url(#clip0_3_16)">
<path d="M25.041 0.256959C38.684 0.259959 49.745 11.349 49.741 25.019C49.737 38.677 38.665 49.745 25.005 49.745C11.317 49.745 0.248985 38.671 0.255985 24.982C0.262985 11.299 11.335 0.253959 25.041 0.256959ZM33.196 20.923C32.82 20.834 32.471 20.697 32.115 20.677C30.917 20.607 29.876 21.33 29.371 22.532C28.686 24.166 29.161 26.621 30.407 27.886C31.63 29.128 33.428 29.091 34.595 27.802L34.852 27.515C35.088 27.701 35.294 27.994 35.461 27.974C36.111 27.894 36.748 27.714 37.422 27.564L35.076 16.991L32.418 17.588L33.196 20.923ZM9.98298 22.569L7.31298 23.161L9.65698 33.734L12.31 33.144C11.975 31.643 11.651 30.185 11.323 28.729C11.175 28.073 11.522 27.532 12.182 27.376C12.59 27.279 12.878 27.409 13.013 27.801C13.131 28.146 13.221 28.501 13.302 28.857C13.592 30.132 13.872 31.41 14.166 32.734L16.764 32.157C16.771 32.065 16.787 32.014 16.777 31.968C16.428 30.394 16.1 28.815 15.71 27.252C15.5689 26.7236 15.3502 26.2191 15.061 25.755C14.688 25.138 14.108 24.79 13.354 24.811C12.542 24.833 11.816 25.072 11.246 25.679C11.082 25.853 10.93 26.039 10.729 26.27L9.98298 22.569ZM22.73 28.469C20.885 29.591 19.888 29.576 19.297 28.4C20 28.238 20.692 28.076 21.385 27.921C22.095 27.762 22.807 27.609 23.538 27.449C23.527 26.317 23.239 25.309 22.542 24.454C21.785 23.526 20.783 23.166 19.603 23.365C17.595 23.703 16.379 25.241 16.408 27.373C16.432 29.144 17.524 30.754 19.042 31.256C20.657 31.791 22.846 31.14 23.892 29.792L22.73 28.469ZM36.014 16.759C36.318 18.143 36.604 19.489 36.911 20.831C37.262 22.369 37.587 23.915 38.004 25.436C38.499 27.239 40.308 27.562 41.983 26.447L41.279 24.669C40.68 24.736 40.532 24.63 40.401 24.041C40.094 22.662 39.795 21.282 39.49 19.902C39.218 18.673 38.943 17.445 38.66 16.177L36.014 16.759ZM27.606 29.748L26.754 25.884C26.7015 25.6568 26.6982 25.421 26.7445 25.1925C26.7907 24.964 26.8854 24.7481 27.0221 24.5592C27.1589 24.3704 27.3345 24.213 27.5371 24.0978C27.7398 23.9825 27.9648 23.912 28.197 23.891C28.391 23.87 28.587 23.858 28.775 23.843V21.547C27.622 21.23 26.696 21.834 25.894 23.422L25.417 22.249L23.27 22.731L24.955 30.332L27.606 29.748Z" fill="white"/>
<path d="M31.671 24.0541C31.78 23.0851 32.299 22.5821 33.127 22.7081C33.438 22.7561 33.629 22.8991 33.692 23.2301C33.819 23.8981 33.975 24.5601 34.117 25.2251C34.235 25.7761 34.081 26.1031 33.613 26.3051C33.114 26.5201 32.585 26.4261 32.354 25.9491C32.062 25.3491 31.893 24.6891 31.671 24.0541ZM21.01 26.2991L18.938 26.7631C18.837 26.0461 19.18 25.5481 19.831 25.4101C20.449 25.2791 20.817 25.5431 21.01 26.2991Z" fill="white"/>
</g>
<defs>
<clipPath id="clip0_3_16">
<rect width="50" height="50" fill="white"/>
</clipPath>
</defs>
</svg>

<svg height="50" width="50" xmlns="http://www.w3.org/2000/svg"><path d="M0 50V0h49.996v50H0zM25.041.257C11.335.254.263 11.299.256 24.982.248 38.67 11.317 49.745 25.005 49.745c13.66 0 24.732-11.068 24.736-24.726C49.745 11.348 38.684.26 25.041.257z" fill="none"/><path d="M25.041.257c13.643.003 24.704 11.092 24.7 24.762-.004 13.658-11.076 24.726-24.736 24.726C11.317 49.745.249 38.671.256 24.982.263 11.299 11.335.254 25.041.257zm8.155 20.666c-.376-.089-.725-.226-1.081-.246-1.198-.07-2.239.653-2.744 1.855-.685 1.634-.21 4.089 1.036 5.354 1.223 1.242 3.021 1.205 4.188-.084l.257-.287c.236.186.442.479.609.459.65-.08 1.287-.26 1.961-.41l-2.346-10.573-2.658.597.778 3.335zM9.983 22.569l-2.67.592 2.344 10.573 2.653-.59c-.335-1.501-.659-2.959-.987-4.415-.148-.656.199-1.197.859-1.353.408-.097.696.033.831.425.118.345.208.7.289 1.056.29 1.275.57 2.553.864 3.877l2.598-.577c.007-.092.023-.143.013-.189-.349-1.574-.677-3.153-1.067-4.716a5.525 5.525 0 0 0-.649-1.497c-.373-.617-.953-.965-1.707-.944-.812.022-1.538.261-2.108.868-.164.174-.316.36-.517.591l-.746-3.701zm12.747 5.9c-1.845 1.122-2.842 1.107-3.433-.069.703-.162 1.395-.324 2.088-.479.71-.159 1.422-.312 2.153-.472-.011-1.132-.299-2.14-.996-2.995-.757-.928-1.759-1.288-2.939-1.089-2.008.338-3.224 1.876-3.195 4.008.024 1.771 1.116 3.381 2.634 3.883 1.615.535 3.804-.116 4.85-1.464l-1.162-1.323zm13.284-11.71c.304 1.384.59 2.73.897 4.072.351 1.538.676 3.084 1.093 4.605.495 1.803 2.304 2.126 3.979 1.011l-.704-1.778c-.599.067-.747-.039-.878-.628-.307-1.379-.606-2.759-.911-4.139-.272-1.229-.547-2.457-.83-3.725l-2.646.582zm-8.408 12.989l-.852-3.864a1.632 1.632 0 0 1 1.443-1.993c.194-.021.39-.033.578-.048v-2.296c-1.153-.317-2.079.287-2.881 1.875l-.477-1.173-2.147.482 1.685 7.601 2.651-.584z" fill="#ffffff"/><path d="M33.196 20.923l-.778-3.335 2.658-.597 2.346 10.573c-.674.15-1.311.33-1.961.41-.167.021-.374-.272-.609-.459l-.257.287c-1.167 1.29-2.965 1.326-4.188.084-1.246-1.265-1.721-3.721-1.036-5.354.505-1.203 1.546-1.925 2.744-1.855.356.02.705.156 1.081.246zm-1.525 3.131c.222.635.391 1.295.682 1.896.231.477.761.571 1.259.356.468-.202.622-.529.504-1.08-.142-.665-.297-1.328-.425-1.995-.063-.331-.254-.475-.565-.522-.826-.127-1.346.377-1.455 1.345zM9.983 22.569l.746 3.699c.201-.231.353-.416.517-.591.571-.607 1.296-.845 2.108-.868.754-.021 1.333.328 1.707.944.28.462.519.975.649 1.497.39 1.564.717 3.143 1.067 4.716.01.046-.006.098-.013.189l-2.598.577c-.294-1.324-.575-2.602-.864-3.877a10.36 10.36 0 0 0-.289-1.056c-.134-.392-.423-.522-.831-.425-.66.156-1.006.697-.859 1.353.328 1.457.652 2.914.987 4.415l-2.653.59-2.344-10.573c.888-.194 1.74-.383 2.67-.59zm12.747 5.9l1.163 1.323c-1.046 1.348-3.235 1.999-4.85 1.464-1.518-.503-2.61-2.112-2.634-3.883-.029-2.133 1.187-3.67 3.195-4.008 1.18-.199 2.182.161 2.939 1.089.697.855.985 1.863.996 2.995-.731.16-1.443.313-2.153.472-.694.155-1.386.317-2.089.479.591 1.176 1.588 1.191 3.433.069zm-1.72-2.17c-.193-.756-.56-1.02-1.179-.889-.651.138-.994.636-.893 1.353l2.072-.464zm15.004-9.54l2.645-.583c.283 1.268.558 2.496.83 3.725.305 1.379.605 2.76.911 4.139.131.589.279.694.878.628l.704 1.778c-1.675 1.115-3.483.792-3.979-1.011-.418-1.52-.742-3.067-1.093-4.605-.305-1.341-.591-2.687-.896-4.071zm-8.408 12.989l-2.651.584-1.685-7.601 2.148-.482.477 1.173c.801-1.588 1.727-2.192 2.881-1.875v2.296c-.189.016-.384.028-.578.048a1.633 1.633 0 0 0-1.443 1.993l.851 3.864z"/><path d="M31.671 24.054c.109-.969.628-1.472 1.456-1.346.311.048.502.191.565.522.127.668.283 1.33.425 1.995.118.551-.036.878-.504 1.08-.499.215-1.028.121-1.259-.356-.292-.6-.461-1.26-.683-1.895zM21.01 26.299l-2.072.464c-.101-.717.242-1.215.893-1.353.618-.131.986.133 1.179.889z" fill="#ffffff"/></svg>
